X: 176
T: The Mug Of Brown Ale
R: jig
M: 6/8
L: 1/8
K: Ador
|:eAA fAA|g3 age|dBG GAG|BGB dBd|
eAA fAA|g3 age|dBd gdB|ABG A3:|
|:efg a3|aba age|dBd g3|gag gfe|
efg a3|aba age|dBd gdB|ABG A3:|

